X: 28603
T: Mushroom Tree, The
R: slide
M: 12/8
K: Eminor
D|:E3 (B3 B2) B A3/2B1/2d|(e5 e3) e2 B|(c3 c2) B c2 B A3/2B1/2d|(B3 B2) G (E3 E2) D|
E3 (B3 B2) B A3/2B1/2d|(e5 (e3)e2) f|(g3 g2) g gfe feB|(e3 e2) B E4:|
|:G3 (B2 B2) B BAG|(A3A2) F (D3D)EF|(G3G2) F GFE FEG|(E5 (E3) E2) F|
G3 (B3B2) B BAG|(A3 A2) F (D3D)EF|(G3 G2) F GFE FEG|E3 E2 G E5:|

